src/img/registered.svg

<!-- Generated by IcoMoon.io -->
<svg version="1.1" xmlns="http://www.w3.org/2000/svg" width="28" height="28" viewBox="0 0 28 28">
<title>registered</title>
<path d="M16.281 10.984c0-0.906-0.313-1.547-0.938-1.891-0.313-0.172-0.75-0.281-1.828-0.281h-1.922v4.391h2.531c1.375 0 2.156-0.812 2.156-2.219zM17.094 15.437l3.203 5.828c0.078 0.156 0.078 0.344-0.016 0.484-0.078 0.156-0.25 0.25-0.422 0.25h-2.375c-0.187 0-0.359-0.094-0.438-0.266l-3.031-5.703h-2.422v5.469c0 0.281-0.219 0.5-0.5 0.5h-2.094c-0.281 0-0.5-0.219-0.5-0.5v-15c0-0.281 0.219-0.5 0.5-0.5h4.594c1.641 0 2.359 0.141 2.969 0.375 1.766 0.656 2.859 2.391 2.859 4.516 0 1.922-0.953 3.547-2.469 4.297 0.047 0.078 0.094 0.156 0.141 0.25zM14 2.5c-6.344 0-11.5 5.156-11.5 11.5s5.156 11.5 11.5 11.5 11.5-5.156 11.5-11.5-5.156-11.5-11.5-11.5zM28 14c0 7.734-6.266 14-14 14s-14-6.266-14-14 6.266-14 14-14v0c7.734 0 14 6.266 14 14z"></path>
</svg>

<svg xmlns="http://www.w3.org/2000/svg" viewBox="-3704 -9143 28 28">
  <defs>
    <style>
      .cls-1 {
        fill: #fff;
      }
    </style>
  </defs>
  <path id="registered" class="cls-1" d="M16.281,10.984a1.976,1.976,0,0,0-.938-1.891,3.7,3.7,0,0,0-1.828-.281H11.593V13.2h2.531a1.991,1.991,0,0,0,2.156-2.219Zm.813,4.453,3.2,5.828a.486.486,0,0,1-.016.484.474.474,0,0,1-.422.25H17.484a.469.469,0,0,1-.438-.266l-3.031-5.7H11.593V21.5a.494.494,0,0,1-.5.5H9a.494.494,0,0,1-.5-.5V6.5A.494.494,0,0,1,9,6h4.594a7.826,7.826,0,0,1,2.969.375,4.6,4.6,0,0,1,2.859,4.516,4.663,4.663,0,0,1-2.469,4.3c.047.078.094.156.141.25ZM14,2.5A11.5,11.5,0,1,0,25.5,14,11.509,11.509,0,0,0,14,2.5ZM28,14A14,14,0,1,1,14,0h0A14,14,0,0,1,28,14Z" transform="translate(-3704 -9143)"/>
</svg>
